packages/icons/src/SVG/paste.svg

<!-- Generated by IcoMoon.io -->
<svg version="1.1" xmlns="http://www.w3.org/2000/svg" width="12" height="12" viewBox="0 0 12 12">
<title>paste</title>
<path d="M3 1v1h-1v9h8v-9h-1v-1h2v11h-10v-11h2z"></path>
<path d="M9 0v3h-6v-3h6zM8 1h-4v1h4v-1z"></path>
</svg>

<svg width="12" height="12" viewBox="0 0 12 12" fill="none" xmlns="http://www.w3.org/2000/svg">
<path d="M3 1V1.5V2H2V11H10V2H9V1H11V12H1V1H3Z" fill="#4C505B"/>
<path fill-rule="evenodd" clip-rule="evenodd" d="M9 0H3V3H9V0ZM8 1H4V2H8V1Z" fill="#4C505B"/>
</svg>
